WalkLike:d=4,o=5,b=160:
p,8f#,8d#,d#,d#,d#.,c#,f#.,d#,8d#,e,8d#,b4,b4.,a4,8a4,b4,
p,8f#,8d#,d#,d#,d#.,c#,f#,d#.,8d#,e,8d#,b4,b4.,a4,8a4,b4,
p,8f#,8d#,8d#,8d#,d#,d#.,c#,f#.,d#,8d#,e,8d#,b4,b4.,a4,8a4,b4,
p,f#,d#.,8d#,d#.,c#,f#,d#.,8d#,e,8d#,b4,8b4,b4,a4,8a4,b4,
p,8e,8d,e,8e,8d,8e,d,e.,f,2e,2d,2f,2d,
b,b.,8a,f4,2a,1b.,1p,
p,b,b.,8a,8b,b,1f.4.

